build/images/icons/pointer.svg

<svg width="37" height="64" viewBox="0 0 37 64" fill="none" xmlns="http://www.w3.org/2000/svg">
<path opacity="0.1" fill-rule="evenodd" clip-rule="evenodd" d="M22.1218 18.878C22.2737 18.961 22.4377 19 22.5997 19C22.9537 19 23.2967 18.812 23.4787 18.479C24.4737 16.655 24.9997 14.588 24.9997 12.5C24.9997 5.607 19.3928 0 12.4999 0C5.60794 0 0 5.607 0 12.5C0 14.588 0.526994 16.655 1.52198 18.479C1.78698 18.963 2.39497 19.144 2.87897 18.878C3.36396 18.613 3.54196 18.006 3.27796 17.521C2.44197 15.99 1.99998 14.254 1.99998 12.5C1.99998 6.71 6.71093 2 12.4999 2C18.2898 2 22.9997 6.71 22.9997 12.5C22.9997 14.254 22.5587 15.99 21.7228 17.521C21.4578 18.006 21.6368 18.613 22.1218 18.878ZM30.0001 63C30.0001 63.553 30.4481 64 31.0001 64C31.552 64 32 63.553 32 63V61.2L34 56.4C35.991 51.623 37 46.576 37 41.4V31.003C37.003 29.954 36.586 28.955 35.824 28.19C34.524 26.887 32.395 26.671 30.9081 27.59C30.4851 25.543 28.6691 24 26.5001 24C25.4551 24 24.4921 24.358 23.7281 24.958C23.0971 23.233 21.4402 22 19.5002 22C18.5762 22 17.7152 22.28 17.0002 22.76V10.5C17.0002 8.019 14.9812 6 12.5003 6C10.0193 6 8.00031 8.019 8.00031 10.5V27.813C6.83132 26.691 5.24534 26 3.50036 26C2.12238 26 1.00039 27.121 1.00039 28.5V41.423C1.00039 45.245 2.00238 49.02 3.89936 52.338L9.0003 61.266V63C9.0003 63.553 9.44829 64 10.0003 64C10.5523 64 11.0003 63.553 11.0003 63V61C11.0003 60.826 10.9553 60.655 10.8683 60.504L5.63534 51.346C3.91136 48.329 3.00037 44.898 3.00037 41.423V28.5C3.00037 28.225 3.22436 28 3.50036 28C5.98133 28 8.00031 30.019 8.00031 32.5V41C8.00031 41.553 8.4483 42 9.0003 42C9.55229 42 10.0003 41.553 10.0003 41V10.5C10.0003 9.121 11.1223 8 12.5003 8C13.8782 8 15.0002 9.121 15.0002 10.5V33C15.0002 33.553 15.4482 34 16.0002 34C16.5522 34 17.0002 33.553 17.0002 33V26.5C17.0002 25.121 18.1222 24 19.5002 24C20.8782 24 22.0002 25.121 22.0002 26.5V33C22.0002 33.553 22.4481 34 23.0001 34C23.5521 34 24.0001 33.553 24.0001 33V28.5C24.0001 27.121 25.1221 26 26.5001 26C27.8781 26 29.0001 27.121 29.0001 28.5V30.964V31.003V33.998V34C29.0001 34.552 29.4471 34.999 29.9991 35H30.0001C30.5511 35 30.9991 34.554 31.0001 34.002C31.0001 34.002 31.0051 31.943 31.0001 30.997V30.972C31.0031 30.454 31.208 29.966 31.579 29.593C32.323 28.847 33.626 28.819 34.407 29.603C34.791 29.988 35.002 30.483 35 31V41.4C35 46.311 34.042 51.099 32.154 55.631L30.0771 60.615C30.0261 60.737 30.0001 60.868 30.0001 61V63Z" fill="black"/>
</svg>

<svg width="37" height="64" fill="none" xmlns="http://www.w3.org/2000/svg"><path opacity=".1" fill-rule="evenodd" clip-rule="evenodd" d="M22.122 18.878a1 1 0 001.357-.399 12.518 12.518 0 001.52-5.979C25 5.607 19.394 0 12.5 0 5.609 0 0 5.607 0 12.5c0 2.088.527 4.155 1.522 5.979a1 1 0 101.756-.958A10.505 10.505 0 012 12.5C2 6.71 6.71 2 12.5 2S23 6.71 23 12.5c0 1.754-.441 3.49-1.277 5.021a1 1 0 00.399 1.357zM30 63a1 1 0 102 0v-1.8l2-4.8c1.991-4.777 3-9.824 3-15V31.003a3.953 3.953 0 00-1.176-2.813c-1.3-1.303-3.429-1.519-4.916-.6A4.51 4.51 0 0026.5 24a4.474 4.474 0 00-2.772.958A4.507 4.507 0 0019.5 22c-.924 0-1.785.28-2.5.76V10.5C17 8.019 14.981 6 12.5 6A4.505 4.505 0 008 10.5v17.313A6.48 6.48 0 003.5 26 2.503 2.503 0 001 28.5v12.923c0 3.822 1.002 7.597 2.9 10.915L9 61.266V63a1 1 0 102 0v-2a.993.993 0 00-.132-.496l-5.233-9.158A20.032 20.032 0 013 41.423V28.5a.5.5 0 01.5-.5C5.981 28 8 30.019 8 32.5V41a1 1 0 102 0V10.5C10 9.121 11.122 8 12.5 8S15 9.121 15 10.5V33a1 1 0 102 0v-6.5c0-1.379 1.122-2.5 2.5-2.5s2.5 1.121 2.5 2.5V33a1 1 0 102 0v-4.5c0-1.379 1.122-2.5 2.5-2.5s2.5 1.121 2.5 2.5V34a1 1 0 002 .002s.005-2.059 0-3.005v-.025a1.96 1.96 0 01.579-1.379c.744-.746 2.047-.774 2.828.01.384.385.595.88.593 1.397v10.4a36.82 36.82 0 01-2.846 14.231l-2.077 4.984A.998.998 0 0030 61v2z" fill="#000"/></svg>
